svgs/anihyou.svg

<svg width="192" height="192" viewBox="0 0 192 192" fill="none" xmlns="http://www.w3.org/2000/svg">
<path d="M95.2816 22V98.1553M95.2816 98.1553H170M95.2816 98.1553H22M95.2816 98.1553C95.2816 98.1553 113.74 125.236 128.33 139.825M95.2816 98.1553C95.2816 98.1553 80.3938 119.693 70.8544 125.456M128.33 139.825C140.675 152.17 164.252 167.126 164.252 167.126M128.33 139.825C136.186 132.53 152.757 116.835 152.757 116.835M70.8544 125.456C53.459 135.966 26.3107 139.825 26.3107 139.825M70.8544 125.456C70.8544 146.628 70.8544 146.758 70.8544 167.929M29.1845 42.1165H161.379M155.631 67.9806H36.3689M113.961 154.194C96.7184 167.126 72.6805 167.975 44.9903 170" stroke="black" stroke-width="12" stroke-linecap="round" stroke-linejoin="round"/>
</svg>

<svg width="192" height="192" viewBox="0 0 192 192" fill="none" xmlns="http://www.w3.org/2000/svg"><path d="M95.282 22v76.155m0 0H170m-74.718 0H22m73.282 0s18.458 27.081 33.048 41.67m-33.048-41.67s-14.888 21.538-24.428 27.301m57.476 14.369c12.345 12.345 35.922 27.301 35.922 27.301m-35.922-27.301c7.856-7.295 24.427-22.99 24.427-22.99m-81.903 8.621c-17.395 10.51-44.543 14.369-44.543 14.369m44.543-14.369v42.473M29.184 42.116H161.38m-5.748 25.865H36.369m77.592 86.213c-17.243 12.932-41.28 13.781-68.97 15.806" stroke="#000" stroke-width="12" stroke-linecap="round" stroke-linejoin="round"/></svg>
